X:1
T:Title
%%score ( 1 2 ) { 3 | 4 }
L:1/8
Q:1/4=97
M:4/4
K:A
V:1 treble nm="Grand Piano, Soprano"
V:2 treble 
V:3 bass nm="Choir Pad, Are You Counting the Cost?"
V:4 bass 
V:1
 [CE]>[CA] [Ec]2 [Ec]>[DB] [CA]2 | [EA]>[EA] [FB]2 [FA]>[DF] [CE]2 | %2
w: By~William~Thomas~Dale * * * * *||
 [CE]>[CE] [EA]2 [EA]>[EA] [EA]2 | [Ac]>[Ac] [GB]6 | [CE]>[CA] [Ec]2 [Ec]>[DB] [CA]2 | %5
w: |||
 [EA]>[EA] [FB]2 [FA]>[DF] [CE]2 | [CE]>[CE] [EA]2 [EA]>[EA] [Ac]2 | [GB]>[GB] A6 | %8
w: |||
 [Ec]>[Ed] [Ae]2 [Ae]>[Ae] [Ae]2 | z2 d6 | [GB]>[Ac] [Bd]2 [Bd]>[Bd] [Bd]2 | z2 c6 | %12
w: ||||
 [Ec]>[Ed] [Ae]2 [Ae]>[Ae] [Ae]2 | [Ac]>[Ac] [FB]2 [FA]>[FA] [Fd]2 | %14
w: ||
 [Fd]>[Fd] [Ec]2 [Ec]>[CA] [DB]2 | z2 A6- | A2 z2 z4 |] %17
w: |||
V:2
 x8 | x8 | x8 | x8 | x8 | x8 | x8 | x8 | x8 | [Bd]>[Ac] G2 G>G G2 | x8 | [Be]>[GB] A2 A>A A2 | x8 | %13
 x8 | x8 | [Ec]>[DB] C2 DD C2- | C6 z2 |] %17
V:3
 A,>A, A,2 A,>A, A,2 | A,>A, A,2 A,>A, A,2 | A,>A,[K:treble] C2 C>C C2 | E>E E6 | %4
 A,>A, A,2 A,>A, A,2 | A,>A, A,2 A,>A, A,2 | A,>A,[K:treble] C2 C>C E2 | D>D C6 | A,>B, C2 C>C C2 | %9
 E>E E2 E>E E2 | E>E E2 E>E E2 | E>E E2 E>E E2 | A,>B, C2 C>C C2 | E>E D2 D>D[K:bass] A,2 | %14
 A,>A, A,2 A,>A, G,2 | G,>G, A,2 F,F, E,2- | E,6 z2 |] %17
V:4
 A,,>A,, A,,2 A,,>A,, A,,2 | C,>C, D,2 D,>D, A,,2 | A,,>A,, A,,2 A,,>A,, A,2 | A,>A, E,6 | %4
 A,,>A,, A,,2 A,,>A,, A,,2 | C,>C, D,2 D,>D, A,,2 | A,,>A,, A,2 A,>A, E,2 | E,>E, A,,6 | %8
 A,,>A,, A,,2 A,,>A,, A,2 | G,>A, E,2 E,>E, E,2 | E,>E, E,2 E,>E, E,2 | E,>E, A,,2 A,,>A,, A,,2 | %12
 A,,>A,, A,,2 A,,>A,, A,,2 | C,>C, D,2 D,>D, D,2 | D,>D, E,2 E,>E, E,2 | E,>E, A,,6- | %16
 A,,2 z2 z4 |] %17

